X: 4
T: The Maid Behind The Bar
R: reel
M: 4/4
L: 1/8
K: Dmaj
|:"D"FAAB AFED|FAAB A2de|"G"fBBA Bcde|"D"fdgf "A"efdB|
  "D"FAAB AFED|FAAB A2de|"G"fBBA BcdB|1 "A"AFEF "D"D2DE:|2 "A"AFEF "D"D2de:||
|:"D"faag fdde|"D"fdad fdd2|"Em"efga beef|"G"gebe "A"geeg|
"D"fgaf b2af|"D"defd "A"e2de|"G"fBBA BcdB|1 "A"AFEF "D"D2de:|2 "A"AFEF "D"D4||

%%newpage
%% header "Pizza Wizards - Bus Stop / Earl's Chair		$P"

